src/icons/remove-trash.svg

<?xml version="1.0" encoding="UTF-8"?>
<svg xmlns="http://www.w3.org/2000/svg" xmlns:xlink="http://www.w3.org/1999/xlink" width="32" height="32" viewBox="0 0 32 32" version="1.1">
<g id="surface1">
<path style=" stroke:none;fill-rule:nonzero;fill:rgb(0%,0%,0%);fill-opacity:1;" d="M 13.441406 1.28125 C 12.386719 1.28125 11.519531 2.148438 11.519531 3.199219 L 11.519531 4.480469 L 5.121094 4.480469 C 4.765625 4.480469 4.480469 4.765625 4.480469 5.121094 C 4.480469 5.472656 4.765625 5.761719 5.121094 5.761719 L 5.761719 5.761719 L 5.761719 28.800781 C 5.761719 29.859375 6.621094 30.71875 7.679688 30.71875 L 21.785156 30.71875 C 22.851562 31.519531 24.171875 32 25.601562 32 C 29.121094 32 32 29.121094 32 25.601562 C 32 22.296875 29.460938 19.554688 26.238281 19.234375 L 26.238281 5.761719 L 26.878906 5.761719 C 27.234375 5.761719 27.519531 5.472656 27.519531 5.121094 C 27.519531 4.765625 27.234375 4.480469 26.878906 4.480469 L 20.480469 4.480469 L 20.480469 3.199219 C 20.480469 2.148438 19.613281 1.28125 18.558594 1.28125 Z M 13.441406 2.558594 L 18.558594 2.558594 C 18.914062 2.558594 19.199219 2.84375 19.199219 3.199219 L 19.199219 4.480469 L 12.800781 4.480469 L 12.800781 3.199219 C 12.800781 2.84375 13.085938 2.558594 13.441406 2.558594 Z M 12.160156 8.960938 C 12.515625 8.960938 12.800781 9.246094 12.800781 9.601562 L 12.800781 25.601562 C 12.800781 25.953125 12.515625 26.238281 12.160156 26.238281 C 11.804688 26.238281 11.519531 25.953125 11.519531 25.601562 L 11.519531 9.601562 C 11.519531 9.246094 11.804688 8.960938 12.160156 8.960938 Z M 16 8.960938 C 16.355469 8.960938 16.640625 9.246094 16.640625 9.601562 L 16.640625 25.601562 C 16.640625 25.953125 16.355469 26.238281 16 26.238281 C 15.644531 26.238281 15.359375 25.953125 15.359375 25.601562 L 15.359375 9.601562 C 15.359375 9.246094 15.644531 8.960938 16 8.960938 Z M 19.839844 8.960938 C 20.195312 8.960938 20.480469 9.246094 20.480469 9.601562 L 20.480469 21.769531 C 19.808594 22.664062 19.363281 23.738281 19.238281 24.910156 C 19.226562 24.929688 19.210938 24.941406 19.199219 24.960938 L 19.199219 9.601562 C 19.199219 9.246094 19.484375 8.960938 19.839844 8.960938 Z M 25.601562 20.480469 C 28.414062 20.480469 30.71875 22.785156 30.71875 25.601562 C 30.71875 28.414062 28.414062 30.71875 25.601562 30.71875 C 22.785156 30.71875 20.480469 28.414062 20.480469 25.601562 C 20.480469 22.785156 22.785156 20.480469 25.601562 20.480469 Z M 23.359375 22.71875 C 23.199219 22.71875 23.039062 22.785156 22.914062 22.914062 C 22.65625 23.167969 22.65625 23.550781 22.914062 23.808594 L 24.703125 25.601562 L 22.914062 27.390625 C 22.65625 27.648438 22.65625 28.03125 22.914062 28.289062 C 23.167969 28.542969 23.550781 28.542969 23.808594 28.289062 L 25.601562 26.496094 L 27.390625 28.289062 C 27.648438 28.542969 28.03125 28.542969 28.289062 28.289062 C 28.414062 28.160156 28.480469 27.96875 28.480469 27.839844 C 28.480469 27.710938 28.414062 27.519531 28.289062 27.390625 L 26.496094 25.601562 L 28.289062 23.808594 C 28.414062 23.679688 28.480469 23.488281 28.480469 23.359375 C 28.480469 23.230469 28.414062 23.039062 28.289062 22.914062 C 28.03125 22.65625 27.648438 22.65625 27.390625 22.914062 L 25.601562 24.703125 L 23.808594 22.914062 C 23.679688 22.785156 23.519531 22.71875 23.359375 22.71875 Z M 23.359375 22.71875 "/>
</g>
</svg>

<svg role="img" viewBox="0 0 32 32" xmlns="http://www.w3.org/2000/svg"><path d="M13.441 1.281A1.93 1.93 0 0 0 11.52 3.2v1.28h-6.4a.641.641 0 0 0 0 1.281h.64v23.04a1.92 1.92 0 0 0 1.919 1.918h14.105A6.338 6.338 0 0 0 25.602 32C29.122 32 32 29.121 32 25.602c0-3.305-2.54-6.047-5.762-6.368V5.762h.64a.641.641 0 0 0 0-1.282H20.48V3.2a1.93 1.93 0 0 0-1.92-1.92Zm0 1.278h5.118c.355 0 .64.285.64.64V4.48h-6.398V3.2c0-.356.285-.641.64-.641m-1.28 6.402c.355 0 .64.285.64.64v16a.638.638 0 0 1-.64.637.638.638 0 0 1-.641-.636v-16c0-.356.285-.641.64-.641m3.839 0c.355 0 .64.285.64.64v16a.638.638 0 0 1-.64.637.638.638 0 0 1-.64-.636v-16c0-.356.285-.641.64-.641m3.84 0c.355 0 .64.285.64.64V21.77a6.341 6.341 0 0 0-1.242 3.14c-.011.02-.027.031-.039.05V9.603c0-.356.285-.641.64-.641m5.762 11.52c2.812 0 5.117 2.304 5.117 5.12 0 2.813-2.305 5.118-5.117 5.118-2.817 0-5.122-2.305-5.122-5.117 0-2.817 2.305-5.122 5.122-5.122m-2.243 2.238a.62.62 0 0 0-.445.195.614.614 0 0 0 0 .895l1.79 1.793-1.79 1.789a.618.618 0 0 0 0 .898.62.62 0 0 0 .895 0l1.793-1.793 1.789 1.793c.257.254.64.254.898 0a.709.709 0 0 0 .191-.45.709.709 0 0 0-.19-.448l-1.794-1.79 1.793-1.792a.709.709 0 0 0 .191-.45.692.692 0 0 0-.19-.445.618.618 0 0 0-.9 0l-1.788 1.79-1.793-1.79a.636.636 0 0 0-.45-.195m0 0" style="stroke:none;fill-rule:nonzero;fill:rgb(0%,0%,0%);fill-opacity:1"/></svg>
